X: 35103
T: Rolling Waves, The
R: jig
M: 6/8
K: Dmajor
|:F2E EDE|F2D DED|F2E EFA|d2e fdA|
F2E EDE|F2D DED|F2E EFA|BAB d2d:|
|:ABd e2 f|d2c B2A|ABd e2 f|dBA B2B|
ABd ede|fdB BAF|AFE EFA|BAB d2d:|

